tools/download-figma-icons/icons/outlined-medium/tick-shape.svg

<svg width="24" height="24" viewBox="0 0 24 24" fill="none" xmlns="http://www.w3.org/2000/svg">
<path fill-rule="evenodd" clip-rule="evenodd" d="M20.19 14.8063C20.0558 14.3885 20.1795 13.928 20.5035 13.6325L22.317 11.9825L20.5043 10.3333C20.1795 10.037 20.0558 9.5758 20.19 9.1588L20.9348 6.8233L18.54 6.30205C18.1125 6.2083 17.7743 5.87155 17.6805 5.44405L17.1585 3.04705L14.823 3.79255C14.4075 3.9268 13.9463 3.80305 13.6493 3.4783L11.9993 1.6648L10.35 3.47755C10.0538 3.80305 9.59326 3.9268 9.17626 3.79255L6.84076 3.04705L6.31951 5.44255C6.22426 5.8723 5.88751 6.20905 5.45851 6.30205L3.06451 6.8233L3.81001 9.1588C3.94351 9.5758 3.81976 10.037 3.49576 10.3325L1.68226 11.9825L3.49501 13.6318C3.81976 13.928 3.94351 14.3885 3.80926 14.8063L3.06451 17.141L5.45926 17.663C5.88751 17.756 6.22426 18.0928 6.31876 18.521L6.84076 20.918L9.17626 20.1718C9.28801 20.1365 9.40201 20.1193 9.51676 20.1193C9.82876 20.1193 10.1333 20.249 10.35 20.486L11.9993 22.3003L13.6493 20.4868C13.9448 20.1628 14.4045 20.039 14.823 20.1718L17.1585 20.918L17.6798 18.5225C17.7743 18.0928 18.1125 17.7568 18.54 17.663L20.9348 17.141L20.19 14.8063ZM23.6318 11.1501C23.865 11.3631 23.9993 11.6661 23.9993 11.9826C23.9993 12.2983 23.865 12.6013 23.6318 12.8143L21.6915 14.5791L22.4895 17.0781C22.5855 17.3788 22.5503 17.7088 22.3928 17.9826C22.2338 18.2563 21.9653 18.4521 21.6563 18.5188L19.095 19.0776L18.537 21.6403C18.468 21.9501 18.2715 22.2178 17.9985 22.3753C17.7255 22.5321 17.397 22.5688 17.0955 22.4721L14.5965 21.6741L12.8318 23.6143C12.6195 23.8483 12.3158 23.9826 11.9993 23.9826C11.6835 23.9826 11.3798 23.8483 11.1675 23.6143L9.40275 21.6741L6.90375 22.4721C6.60375 22.5688 6.273 22.5321 6.00075 22.3753C5.72775 22.2178 5.53125 21.9501 5.463 21.6418L4.90425 19.0776L2.34225 18.5188C2.034 18.4521 1.76625 18.2563 1.60725 17.9826C1.44975 17.7088 1.41375 17.3788 1.5105 17.0773L2.30775 14.5791L0.3675 12.8143C0.13425 12.6013 0 12.2983 0 11.9826C0 11.6661 0.13425 11.3631 0.3675 11.1508L2.30775 9.38534L1.5105 6.88709C1.41375 6.58634 1.44975 6.25634 1.60725 5.98259C1.76625 5.70884 2.034 5.51309 2.343 5.44559L4.90425 4.88759L5.46225 2.32484C5.53125 2.01434 5.72775 1.74734 6.00075 1.58984C6.273 1.43234 6.6015 1.39634 6.90375 1.49234L9.40275 2.29034L11.1683 0.350841C11.592 -0.117159 12.4073 -0.116409 12.8318 0.350841L14.5965 2.29034L17.0955 1.49234C17.3955 1.39634 17.7255 1.43234 17.9985 1.58984C18.2715 1.74734 18.468 2.01434 18.5363 2.32259L19.095 4.88759L21.657 5.44559C21.9653 5.51309 22.2338 5.70884 22.3928 5.98259C22.5503 6.25634 22.5855 6.58634 22.4888 6.88709L21.6915 9.38534L23.6318 11.1501ZM10.5283 13.6732L15.4813 8.72094C15.7745 8.42769 16.2485 8.42769 16.5418 8.72094C16.835 9.01419 16.835 9.48819 16.5418 9.78144L11.0593 15.2639C10.9123 15.4102 10.7203 15.4837 10.5283 15.4837C10.337 15.4837 10.145 15.4102 9.99803 15.2639L7.51028 12.7762C7.21703 12.4829 7.21703 12.0082 7.51028 11.7157C7.80353 11.4224 8.27828 11.4224 8.57078 11.7157L10.5283 13.6732Z" fill="black"/>
</svg>

<svg width="24" height="24" viewBox="0 0 24 24" fill="none" xmlns="http://www.w3.org/2000/svg"><path fill-rule="evenodd" clip-rule="evenodd" d="M20.19 14.806a1.126 1.126 0 0 1 .313-1.173l1.814-1.65-1.813-1.65a1.127 1.127 0 0 1-.314-1.174l.745-2.336-2.395-.521a1.13 1.13 0 0 1-.86-.858l-.521-2.397-2.336.746c-.415.134-.877.01-1.174-.315L12 1.665l-1.65 1.813a1.127 1.127 0 0 1-1.174.315l-2.335-.746-.521 2.396a1.13 1.13 0 0 1-.861.86l-2.394.52.745 2.336c.134.417.01.878-.314 1.173l-1.814 1.65 1.813 1.65c.325.296.449.757.314 1.174l-.744 2.335 2.394.522c.429.093.765.43.86.858l.522 2.397 2.335-.746a1.126 1.126 0 0 1 1.174.314L12 22.3l1.65-1.813a1.13 1.13 0 0 1 1.173-.315l2.335.746.522-2.395a1.13 1.13 0 0 1 .86-.86l2.395-.522-.745-2.335Zm3.442-3.656a1.13 1.13 0 0 1 0 1.664l-1.94 1.765.797 2.5c.096.3.061.63-.096.904a1.13 1.13 0 0 1-.737.536l-2.561.559-.558 2.562a1.126 1.126 0 0 1-1.441.832l-2.5-.798-1.764 1.94a1.126 1.126 0 0 1-1.665 0l-1.764-1.94-2.5.798a1.126 1.126 0 0 1-1.44-.83l-.559-2.564-2.562-.56a1.129 1.129 0 0 1-.735-.535 1.128 1.128 0 0 1-.097-.906l.798-2.498-1.94-1.765a1.127 1.127 0 0 1 0-1.663l1.94-1.766-.797-2.498a1.127 1.127 0 0 1 .832-1.441l2.561-.558.558-2.563a1.125 1.125 0 0 1 1.441-.833l2.5.798L11.168.35c.424-.467 1.24-.466 1.664 0l1.764 1.94 2.5-.798a1.126 1.126 0 0 1 1.44.83l.559 2.566 2.562.558c.308.067.577.263.736.537.157.273.192.603.096.904l-.797 2.498 1.94 1.765Zm-13.104 2.523 4.953-4.952a.75.75 0 1 1 1.06 1.06l-5.482 5.483a.75.75 0 0 1-1.061 0L7.51 12.776a.75.75 0 1 1 1.06-1.06l1.958 1.957Z" fill="currentColor"/></svg>
